X: 163
T: McDonagh's
R: reel
M: 4/4
L: 1/8
K: Edor
|B2 A=c BE (3EEE|GEBE dEBE|BAFA B~E3|DFAF BAFA|
|B2 A=c BE (3EEE|GEBE dEBE|BAGF GABc|dBAG FDDA:||
|:d2 ef gfed|f~B3 f~B3|d2 ef gfed|ceae ceae|
|d2 ef gfed|f~B3 f~B3|afge fdec|dBAG FDDA:||
F: https://thesession.org/tunes/1963#setting15394

